Sweet-Rainbow/icons/nextcloud.svg

<?xml version="1.0" encoding="UTF-8" standalone="no"?>
<!-- Generator: Gravit.io -->

<svg
   xmlns:dc="http://purl.org/dc/elements/1.1/"
   xmlns:cc="http://creativecommons.org/ns#"
   xmlns:rdf="http://www.w3.org/1999/02/22-rdf-syntax-ns#"
   xmlns:svg="http://www.w3.org/2000/svg"
   xmlns="http://www.w3.org/2000/svg"
   xmlns:sodipodi="http://sodipodi.sourceforge.net/DTD/sodipodi-0.dtd"
   xmlns:inkscape="http://www.inkscape.org/namespaces/inkscape"
   style="isolation:isolate"
   viewBox="0 0 36 36"
   width="48"
   height="48"
   version="1.1"
   id="svg9"
   sodipodi:docname="nextcloud.svg"
   inkscape:version="0.92.4 (5da689c313, 2019-01-14)">
  <metadata
     id="metadata15">
    <rdf:RDF>
      <cc:Work
         rdf:about="">
        <dc:format>image/svg+xml</dc:format>
        <dc:type
           rdf:resource="http://purl.org/dc/dcmitype/StillImage" />
        <dc:title></dc:title>
      </cc:Work>
    </rdf:RDF>
  </metadata>
  <defs
     id="defs13" />
  <sodipodi:namedview
     pagecolor="#ffffff"
     bordercolor="#666666"
     borderopacity="1"
     objecttolerance="10"
     gridtolerance="10"
     guidetolerance="10"
     inkscape:pageopacity="0"
     inkscape:pageshadow="2"
     inkscape:window-width="640"
     inkscape:window-height="480"
     id="namedview11"
     showgrid="false"
     inkscape:zoom="29.365243"
     inkscape:cx="25.325443"
     inkscape:cy="32"
     inkscape:current-layer="svg9"
     units="px" />
  <linearGradient
     id="_lgradient_2"
     x1="0"
     y1="0.5"
     x2="1"
     y2="0.5"
     gradientTransform="matrix(46,0,0,46,1,1)"
     gradientUnits="userSpaceOnUse">
    <stop
       offset="0%"
       stop-opacity="1"
       style="stop-color:rgb(24,208,173)"
       id="stop2" />
    <stop
       offset="90.44964029999998%"
       stop-opacity="1"
       style="stop-color:rgb(7,195,242)"
       id="stop4" />
  </linearGradient>
  <g
     id="g826"
     transform="matrix(0.7826087,0,0,0.7826087,-0.7826088,-0.7826088)">
    <path
       id="path7"
       d="M 33.319,22.212 C 32.493,17.818 28.634,14.5 24,14.5 v 0 c -4.634,0 -8.493,3.318 -9.319,7.712 v 0 C 13.776,19.385 11.128,17.333 8,17.333 v 0 c -3.866,0 -7,3.134 -7,7 0,0.194 0.008,0.385 0.023,0.574 v 0 L 1,25 v 17 c 0,2.76 2.24,5 5,5 h 36 c 2.76,0 5,-2.24 5,-5 v -6.55 0 c 0,-1.104 -0.896,-2 -2,-2 v 0 c -1.104,0 -2,0.896 -2,2 v 0 4.55 c 0,1.656 -1.344,3 -3,3 H 8 C 6.344,43 5,41.656 5,40 v -9.34 c 0.909,0.432 1.926,0.673 3,0.673 3.245,0 5.975,-2.208 6.756,-5.208 0.951,4.227 4.73,7.375 9.244,7.375 4.514,0 8.293,-3.148 9.244,-7.375 0.781,3 3.511,5.208 6.756,5.208 3.617,0 6.593,-2.743 6.971,-6.259 v 0 C 46.982,25.05 46.991,25.025 47,25 V 25 24.333 6 C 47,3.24 44.76,1 42,1 H 6 C 3.24,1 1,3.24 1,6 v 6.55 0 c 0,1.104 0.896,2 2,2 v 0 c 1.104,0 2,-0.896 2,-2 v 0 V 8 C 5,6.344 6.344,5 8,5 h 32 c 1.656,0 3,1.344 3,3 v 10.007 c -0.909,-0.432 -1.926,-0.674 -3,-0.674 v 0 c -3.128,0 -5.776,2.052 -6.681,4.879 z M 24,19.25 c 2.623,0 4.75,2.127 4.75,4.75 0,2.623 -2.127,4.75 -4.75,4.75 -2.623,0 -4.75,-2.127 -4.75,-4.75 0,-2.623 2.127,-4.75 4.75,-4.75 z M 8,21.533 c 1.546,0 2.8,1.254 2.8,2.8 0,1.547 -1.254,2.8 -2.8,2.8 -1.546,0 -2.8,-1.253 -2.8,-2.8 0,-1.546 1.254,-2.8 2.8,-2.8 z m 32,0 c 1.546,0 2.8,1.254 2.8,2.8 0,1.547 -1.254,2.8 -2.8,2.8 -1.546,0 -2.8,-1.253 -2.8,-2.8 0,-1.546 1.254,-2.8 2.8,-2.8 z"
       inkscape:connector-curvature="0"
       style="fill:url(#_lgradient_2);fill-rule:evenodd" />
  </g>
</svg>

<?xml version="1.0" encoding="UTF-8" standalone="no"?><!-- Generator: Gravit.io --><svg xmlns="http://www.w3.org/2000/svg" xmlns:xlink="http://www.w3.org/1999/xlink" style="isolation:isolate" viewBox="0 0 48 48" width="48pt" height="48pt"><linearGradient id="_lgradient_2" x1="0" y1="0.5" x2="1" y2="0.5" gradientTransform="matrix(46,0,0,46,1,1)" gradientUnits="userSpaceOnUse"><stop offset="0%" stop-opacity="1" style="stop-color:rgb(24,208,173)"/><stop offset="90.44964029999998%" stop-opacity="1" style="stop-color:rgb(7,195,242)"/></linearGradient><path d=" M 33.319 22.212 C 32.493 17.818 28.634 14.5 24 14.5 L 24 14.5 C 19.366 14.5 15.507 17.818 14.681 22.212 L 14.681 22.212 C 13.776 19.385 11.128 17.333 8 17.333 L 8 17.333 C 4.134 17.333 1 20.467 1 24.333 C 1 24.527 1.008 24.718 1.023 24.907 L 1.023 24.907 L 1 25 L 1 42 C 1 44.76 3.24 47 6 47 L 42 47 C 44.76 47 47 44.76 47 42 L 47 35.45 L 47 35.45 C 47 34.346 46.104 33.45 45 33.45 L 45 33.45 C 43.896 33.45 43 34.346 43 35.45 L 43 35.45 L 43 40 C 43 41.656 41.656 43 40 43 L 8 43 C 6.344 43 5 41.656 5 40 L 5 30.66 C 5.909 31.092 6.926 31.333 8 31.333 C 11.245 31.333 13.975 29.125 14.756 26.125 C 15.707 30.352 19.486 33.5 24 33.5 C 28.514 33.5 32.293 30.352 33.244 26.125 C 34.025 29.125 36.755 31.333 40 31.333 C 43.617 31.333 46.593 28.59 46.971 25.074 L 46.971 25.074 C 46.982 25.05 46.991 25.025 47 25 L 47 25 L 47 24.333 L 47 6 C 47 3.24 44.76 1 42 1 L 6 1 C 3.24 1 1 3.24 1 6 L 1 12.55 L 1 12.55 C 1 13.654 1.896 14.55 3 14.55 L 3 14.55 C 4.104 14.55 5 13.654 5 12.55 L 5 12.55 L 5 8 C 5 6.344 6.344 5 8 5 L 40 5 C 41.656 5 43 6.344 43 8 L 43 18.007 C 42.091 17.575 41.074 17.333 40 17.333 L 40 17.333 C 36.872 17.333 34.224 19.385 33.319 22.212 Z  M 24 19.25 C 26.623 19.25 28.75 21.377 28.75 24 C 28.75 26.623 26.623 28.75 24 28.75 C 21.377 28.75 19.25 26.623 19.25 24 C 19.25 21.377 21.377 19.25 24 19.25 L 24 19.25 L 24 19.25 Z  M 8 21.533 C 9.546 21.533 10.8 22.787 10.8 24.333 C 10.8 25.88 9.546 27.133 8 27.133 C 6.454 27.133 5.2 25.88 5.2 24.333 C 5.2 22.787 6.454 21.533 8 21.533 L 8 21.533 L 8 21.533 L 8 21.533 Z  M 40 21.533 C 41.546 21.533 42.8 22.787 42.8 24.333 C 42.8 25.88 41.546 27.133 40 27.133 C 38.454 27.133 37.2 25.88 37.2 24.333 C 37.2 22.787 38.454 21.533 40 21.533 L 40 21.533 L 40 21.533 Z " fill-rule="evenodd" fill="url(#_lgradient_2)"/></svg>
